!!!SOCIAL_FUNCTION:	war songs
!!!PDT:	1913
!!!OTL: No_8_Death_Song_of_Ga'witayac'.krn
!!!REG: Great_Lakes
!!!LANG: Non-Tone
!!!LING_GROUP: Algonquin
**kern	**kern
*staff2	*staff1
=1-	=1-
*clefF4	*clefF4
*k[]	*k[]
*M3/4	*M3/4
8GG^/L	8.e\L
8GG/J	.
.	16d\Jk
8GG^/L	8.e\L
8GG/J	.
.	16e\Jk
8GG^/L	8.e\L
8GG/J	.
.	16d\Jk
=2	=2
2.r	4c\
.	4c\
.	4A\
=3	=3
2.r	4c\
.	12c\L
.	8A\
.	24d\Jk
.	8.c\L
.	16A-\Jk
=4	=4
2.r	2.G\
=5	=5
2.r	4c\
.	12c\L
.	8A\
.	24d\Jk
.	8.c\L
.	16A-\Jk
=6	=6
2.r	4G\
.	2G\
=7	=7
2.r	4A-\
.	12A-\L
.	12G\
.	12E\J
.	8.G\L
.	16E\Jk
=8	=8
2.r	4C/
.	2C/
=9	=9
2.r	4E\
.	12E\L
.	12C\
.	12F\J
.	4E\
=10||	=10||
*M2/4	*M2/4
2r	8e\L
.	8e\J
.	12e\L
.	12e\
.	12e\J
=11	=11
2r	8e\L
.	24d\K
.	12c\J
.	(16c\LK
.	8.A\J)
=12||	=12||
*M3/4	*M3/4
2.r	8.e\L
.	16e\Jk
.	12e\L
.	12d\
.	12e\J
.	8.c\L
.	16A-\Jk
=13	=13
2.r	2.G\
=14	=14
2.r	4c\
.	12c\L
.	12A\
.	12d\J
.	8.c\L
.	16A-\Jk
=15	=15
2.r	4G\
.	4G\
.	4E\
=16	=16
2.r	8.G\L
.	16G\Jk
.	12G\L
.	12E\
.	12A\J
.	8.G\L
.	16E\Jk
=17	=17
2.r	4C/
.	2C/
=18	=18
2.r	4E\
.	12E\L
.	12C\
.	12F\J
.	4E\
=19	=19
2.r	4C/
.	2C/
==	==
*-	*-
